16x16/panel/megawarning.svg

<svg height="16" width="16" xmlns="http://www.w3.org/2000/svg"><path d="m8 1a7 7 0 0 0 -7 7 7 7 0 0 0 7 7 7 7 0 0 0 .006 0 5 5 0 0 1 -1.006-3 5 5 0 0 1 .42-2h-.42l-1-1.5v2.5h-2v-6h2l2 3 2-3h2v2a5 5 0 0 1 3 1.008 7 7 0 0 0 0-.008 7 7 0 0 0 -7-7z" fill="#bebebe"/><path d="m10.586 9.879 1.414 1.414 1.414-1.414.707.707-1.414 1.414 1.414 1.414-.707.707-1.414-1.414-1.414 1.414-.707-.707 1.414-1.414-1.414-1.414z" fill="#5294e2"/></svg>

<svg height="16" width="16" xmlns="http://www.w3.org/2000/svg">
    <path d="M8 1a7 7 0 0 0-7 7 7 7 0 0 0 7 7 7 7 0 0 0 .006 0A5 5 0 0 1 7 12a5 5 0 0 1 .42-2H7L6 8.5V11H4V5h2l2 3 2-3h2v2a5 5 0 0 1 3 1.008A7 7 0 0 0 15 8a7 7 0 0 0-7-7z" fill="#bebebe"/>
    <path d="M10.586 9.879 12 11.293l1.414-1.414.707.707L12.707 12l1.414 1.414-.707.707L12 12.707l-1.414 1.414-.707-.707L11.293 12l-1.414-1.414z" fill="#00caff"/>
</svg>
